X:1
T:Mairi’s Wedding
L:1/4
M:4/4
I:linebreak $
K:G
V:1 treble nm="Voice" snm="Voice"
V:1
"G" D3/2 E/ D E | G A B2 |"Am" A G E G | B A B/ d3/2 |$ D3/2 E/ D E | G A B3/2 c/4B/4 | %6
 A G"Am" E C | D2 D2 ::$ d2 d3/2 e/ | d c B2 | A G E G | B A B/ d3/2 |$ d3/2 B/ d3/2 e/ | %13
 d c B3/2 c/4B/4 | A G"Am" E C | D4 :| %16
